!!!COM: Music21
!!!OTL: Foliada de Conxo
!!!OMV: pezas_foliadas_foliada-de-conxo_foliada-de-conxo-partitura.musicxml
**kern
*I"Bagpipes
*I'Bag
*clefG^2
*k[]
*M3/4
=1
!LO:TX:a:t=Vivace
*MM160
!LO:TX:a:t=[quarter]=160
4r
4.ee
8ff
=||
4gg
8ggL
8ffJ
4gg
=
4gg
4.ff
8gg
=
4aa
8aaL
8ggJ
[4aa
=
4aa]
4.bb
8ccc
=
4bb
8aaL
8ggJ
4ff
=
4gg
4.aa
8bb
=
4gg
8ggL
8ffJ
[4ee
=
4ee]
4.ee
8ff
=
4gg
8ggL
8ffJ
[4gg
!!linebreak:original
=
4gg]
4.ff
8gg
=
4aa
8aaL
8ggJ
[4aa
=
4aa]
4.bb
8ccc
=
4bb
8aaL
8ggJ
4ff
=
4gg
4.aa
8bb
=
4gg
8ggL
8ffJ
[4ee
=
2.ee]
=||
4.dd
8ee
4ff
=
4gg
4aa
4bb
=
4.gg
8ff
[4gg
=
2.gg]
!!linebreak:original
=
4.gg
8ff
4ee
=
4gg
4gg
4ee
=
4.ff
8ee
[4dd
=
2.dd]
=||
4.dd
8ee
4ff
=
4gg
4aa
4bb
=
4.gg
8ff
[4gg
=
2.gg]
=||
4.gg
8ff
4ee
=
4gg
4gg
4ee
=
4.ff
8ee
[4dd
!!linebreak:original
=
4dd]
4dd
4ee
=
2ff
4gg
=
2aa
4bb
!!linebreak:original
=
4.gg
8ff
[4gg
=
2.gg]
=||
4.gg
8ff
4ee
=
4gg
4gg
4ee
=
4.ff
8ee
[4dd
=
4dd]
4dd
4ee
=
2ff
4gg
=
2aa
4bb
=
4.gg
8ff
4ee
=
4r
4.ee
8ff
=||
4gg
8ggL
8ffJ
4gg
!!linebreak:original
=
4gg
4.ff
8gg
=
4aa
8aaL
8ggJ
[4aa
=
4aa]
4.bb
8ccc
=
4bb
8aaL
8ggJ
4ff
=
4gg
4.aa
8bb
=
4gg
8ggL
8ffJ
[4ee
!!linebreak:original
=
4ee]
4.ee
8ff
=
4gg
8ggL
8ffJ
[4gg
=
4gg]
4.ff
8gg
=
4aa
8aaL
8ggJ
[4aa
=
4aa]
4.bb
8ccc
=
4bb
8aaL
8ggJ
4ff
=
4gg
4.aa
8bb
=
4gg
8ggL
8ffJ
[4ee
=
2.ee]
=||
!LO:TX:a:t=Fine
4r
4.ee
8ff
==
*-
